X:285
T: Haimen Shange,jiaoguanduo
N: C1782
O: China,Jiangsu Haimen
S: III, 430]
N: Freely
R: Shange]
M: 2/4
L: 1/32
K: F
A4c4d32
c4d4d4c2A2f4c2d2d4c2A2f4c2d2d2c2A2cAG2A2G16A4
d2f2c2d2d4c4c4F8D4F2G2A2c2c2A2G8F4D16
D2F6D4G4F4z8
A2c6A4d4c4z8
d4c2A2f2d2d2c2
A2f2A2c2d2edc2A2
f2d2d2c2A2d2c4
A2f2d2c2A2A2c4
A2d2d2c2f2f2d2c2
A2f2d2c2A2A2c4
z8z4c2A2 | f2f2d2c2A2c2d2ed | c2A2G8A4 |
f2f2d2c2A2c2d4 | c2A2G8
A4 | c4c2c2A4G4 | A4G2F2D4D2F2 | z16 |
A2f2d2ccA4c2A2 | c4d2f2d4c2A2 | c2A2G8
c2Acd2A2G2A2G2F2 | G2F2D12

@@@ Tune index: 6840
